!!!OTL: ALS DIE GROSSE STADT BELGARAD
!!!ARE: Europa, Mitteleuropa, Deutschland, Franken; Oesterreich
!!!SCT: E0336
!!!YEM: Copyright 1995, estate of Helmut Schaffrath.
**kern
*ICvox
*Ivox
*M3/4
*k[f#]
*G:
{8d
8d
=1
4g
8b
8b
8a
8a
=2
4g}
{4g
8g
8a
=3
4b
4dd
8cc
8a
=4
2b}
{8dd
8b
=5
4.a
8g
8a
8a
=6
8b
8cc
4dd}
{8dd
8b
=7
4.a
8g
8a
8a
=8
8b
8cc
4dd}
{8d
8d
=9
4g
4b
8a
8a
=10
2b}
{8dd
8cc
=11
4b
4dd
8a
8a
=12
2g}
==
!!!AGN: historisches Lied, Krieg gegen die Tuerken (1789)
!!!ONB: ESAC (Essen Associative Code) Database: ERK1
!!!AMT: simple triple
!!!AIN: vox
!!!EED: Helmut Schaffrath
!!!EEV: 1.0
*-
